X: 5232
T: Broken Doll, The
R: reel
M: 4/4
K: Amajor
cE~E2 FAcd-|df~f2 agef-|f2ed eAGF-|FdcB- BEAB|
cE~E2 FAcd-|df~f2 agef-|f2ed eAGF-|FdcB- BEAB|
cE~E2 FAcd-|dFFE EFFA|EFAE FAfe|edcB- BEAB|
cE~E2 FAcd-|df~f2 agef-|f2ed eAGF-|FdcB- BEGB||
ADFA dFcB-|BEGB eBdc-|cFAc fAdA|BEGB decA-|
ADFA dFcB-|BEGB eBdc|f2ed eAGF-|1 FdcB- BEGB:|2 FdcB- BEAB||

